X: 43031
T: Wiltshire Six Hand
R: polka
M: 2/4
K: Dmajor
|:fA de|fA de|f2 g>f|fe e2|
eA cd|eA cd|e2 f>e|ed d2:|
|:ad/d/ dd|cB B2|gc/c/ cc|BA A2|
ad/d/ dd|cB B2|Be Bc|d2 d2:|

